<?xml version="1.0" encoding="UTF-8"?>
<map version="1.10" tiledversion="1.12.2" orientation="orthogonal" renderorder="right-down" width="16" height="9" tilewidth="32" tileheight="32" infinite="0" nextlayerid="4" nextobjectid="13">
 <tileset firstgid="1" source="tmw_desert_spacing.tsx"/>
 <tileset firstgid="49" source="塔防（透明）.tsx"/>
 <tileset firstgid="49" source="Overworld.tsx"/>
 <tileset firstgid="1489" source="object.tsx"/>
 <imagelayer id="3" name="图像图层 1" repeatx="1" repeaty="1">
  <image source="../tiled_examples/sewer_tileset.png" width="192" height="217"/>
 </imagelayer>
 <layer id="1" name="图块层 1" width="16" height="9">
  <data encoding="csv">
30,30,30,48,30,47,30,30,30,30,30,30,30,48,40,30,
30,30,30,32,30,30,30,30,30,30,47,38,30,30,32,30,
30,30,30,30,30,32,30,39,30,30,30,30,30,30,30,38,
48,30,31,47,30,30,30,30,39,30,31,30,30,30,30,47,
30,30,30,31,30,30,30,30,30,30,40,30,31,30,30,30,
40,30,30,30,30,30,32,30,30,30,30,30,30,30,39,30,
32,30,30,30,40,30,38,30,38,31,48,30,38,30,32,30,
30,30,30,30,30,30,30,30,30,30,40,30,30,39,30,30,
30,30,30,30,30,30,30,30,30,30,30,30,30,30,39,30
</data>
 </layer>
 <objectgroup id="2" name="对象层 1">
  <object id="10" gid="1489" x="32" y="192" width="64" height="62.5"/>
  <object id="12" name="炸弹" gid="1499" x="160" y="160" width="32" height="32">
   <properties>
    <property name="BoomTrigle" type="bool" value="false"/>
   </properties>
  </object>
 </objectgroup>
</map>
